loleaflet/images/lc_warn-copy-paste.svg

<svg viewBox="0 0 24 24" xmlns="http://www.w3.org/2000/svg"><path d="m3 3v13h6v-10h4l-3-3z" fill="#fafafa"/><path d="m2.8574219 2c-.474857 0-.8574219.3825647-.8574219.8574219v13.2851561c0 .474857.3825649.857422.8574219.857422h6.1425781v-1h-6v-13h6v3h1v-2.5859375l2.585938 2.5859375h1.414062l-1-1-2-2-1-1z" fill="#3a3a38"/><path d="m4.5 13c-.277 0-.5.223-.5.5s.223.5.5.5h4.5v-1z" fill="#1e8bcd"/><path d="m4.5 10c-.277 0-.5.223-.5.5s.223.5.5.5h4.5v-1z" fill="#1e8bcd"/><path d="m11 8v13h2.802734l3.785157-8.410156a1.0001 1.0001 0 0 1 .859375-.587891 1.0001 1.0001 0 0 1 .964843.587891l1.587891 3.529297v-4.119141-1l-3-3z" fill="#fafafa"/><path d="m10.857422 7c-.474857 0-.857422.3825647-.857422.8574219v13.2851561c0 .474857.382565.857422.857422.857422h2.496094l.449218-1h-2.802734v-13h6v3.142578c0 .474857.382565.857422.857422.857422h3.142578v4.119141l1 2.220703v-7.339844l-1-1-2-2-1-1zm7.142578 1.4140625 2.585938 2.5859375h-2.585938z" fill="#3a3a38"/><g fill="#1e8bcd"><path d="m12.5 18c-.277 0-.5.223-.5.5s.223.5.5.5h2.203125l.449219-1z"/><path d="m12.5 15c-.277 0-.5.223-.5.5s.223.5.5.5h3.552734l.451172-1z"/></g><path d="m18.5 13-4.5 10h9z" fill="#ed8733"/><path d="m18.5 15.433594-2.957031 6.568359h5.914062z" fill="#f8db8f"/><g fill="#3a3a38" fill-opacity=".965649"><rect height="3" ry=".5" width="1" x="18" y="17"/><rect height="1" ry=".470588" width="1" x="18" y="21"/></g></svg>

<?xml version="1.0" encoding="UTF-8" standalone="no"?>
<svg
   xmlns:dc="http://purl.org/dc/elements/1.1/"
   xmlns:cc="http://creativecommons.org/ns#"
   xmlns:rdf="http://www.w3.org/1999/02/22-rdf-syntax-ns#"
   xmlns:svg="http://www.w3.org/2000/svg"
   xmlns="http://www.w3.org/2000/svg"
   xmlns:sodipodi="http://sodipodi.sourceforge.net/DTD/sodipodi-0.dtd"
   xmlns:inkscape="http://www.inkscape.org/namespaces/inkscape"
   viewBox="0 0 24 24"
   version="1.1"
   id="svg20"
   sodipodi:docname="lc_warn-copy-paste.svg"
   inkscape:version="0.92.5 (2060ec1f9f, 2020-04-08)">
  <metadata
     id="metadata26">
    <rdf:RDF>
      <cc:Work
         rdf:about="">
        <dc:format>image/svg+xml</dc:format>
        <dc:type
           rdf:resource="http://purl.org/dc/dcmitype/StillImage" />
        <dc:title></dc:title>
      </cc:Work>
    </rdf:RDF>
  </metadata>
  <defs
     id="defs24" />
  <sodipodi:namedview
     pagecolor="#ffffff"
     bordercolor="#666666"
     borderopacity="1"
     objecttolerance="10"
     gridtolerance="10"
     guidetolerance="10"
     inkscape:pageopacity="0"
     inkscape:pageshadow="2"
     inkscape:window-width="1366"
     inkscape:window-height="700"
     id="namedview22"
     showgrid="true"
     inkscape:pagecheckerboard="true"
     inkscape:zoom="4.9166667"
     inkscape:cx="-1.2855693"
     inkscape:cy="9.2943792"
     inkscape:window-x="0"
     inkscape:window-y="0"
     inkscape:window-maximized="1"
     inkscape:current-layer="svg20">
    <inkscape:grid
       type="xygrid"
       id="grid833" />
  </sodipodi:namedview>
  <path
     d="m3 3v13h6v-10h4l-3-3z"
     fill="#fafafa"
     id="path2" />
  <path
     d="m2.8574219 2c-.474857 0-.8574219.3825647-.8574219.8574219v13.2851561c0 .474857.3825649.857422.8574219.857422h6.1425781v-1h-6v-13h6v3h1v-2.5859375l2.585938 2.5859375h1.414062l-1-1-2-2-1-1z"
     fill="#3a3a38"
     id="path4" />
  <path
     d="m4.5 13c-.277 0-.5.223-.5.5s.223.5.5.5h4.5v-1z"
     fill="#1e8bcd"
     id="path6" />
  <path
     d="m4.5 10c-.277 0-.5.223-.5.5s.223.5.5.5h4.5v-1z"
     fill="#1e8bcd"
     id="path8" />
  <path
     style="fill:#fafafa"
     d="M 11 8 L 11 21 L 13.802734 21 L 17.587891 12.589844 A 1.0001 1.0001 0 0 1 18.447266 12.001953 A 1.0001 1.0001 0 0 1 19.412109 12.589844 L 21 16.119141 L 21 12 L 21 11 L 18 8 L 11 8 z "
     id="path10" />
  <path
     style="fill:#3a3a38"
     d="M 10.857422 7 C 10.382565 7 10 7.3825647 10 7.8574219 L 10 21.142578 C 10 21.617435 10.382565 22 10.857422 22 L 13.353516 22 L 13.802734 21 L 11 21 L 11 8 L 17 8 L 17 11.142578 C 17 11.617435 17.382565 12 17.857422 12 L 21 12 L 21 16.119141 L 22 18.339844 L 22 11 L 21 10 L 19 8 L 18 7 L 10.857422 7 z M 18 8.4140625 L 20.585938 11 L 18 11 L 18 8.4140625 z "
     id="path12" />
  <g
     fill="#1e8bcd"
     id="g18">
    <path
       d="M 12.5 18 C 12.223 18 12 18.223 12 18.5 C 12 18.777 12.223 19 12.5 19 L 14.703125 19 L 15.152344 18 L 12.5 18 z "
       id="rect14" />
    <path
       d="M 12.5 15 C 12.223 15 12 15.223 12 15.5 C 12 15.777 12.223 16 12.5 16 L 16.052734 16 L 16.503906 15 L 12.5 15 z "
       id="rect16" />
  </g>
  <path
     inkscape:connector-curvature="0"
     style="fill:#ed8733"
     d="M 18.5,13 14,23 h 9 z"
     id="path12-3" />
  <path
     inkscape:connector-curvature="0"
     style="fill:#f8db8f"
     d="m 18.5,15.433594 -2.957031,6.568359 h 5.914062 z"
     id="path14" />
  <g
     style="fill:#3a3a38;fill-opacity:0.965649"
     id="g20">
    <rect
       height="3"
       ry="0.5"
       width="1"
       x="18"
       y="17"
       id="rect16-6" />
    <rect
       height="1"
       ry="0.470588"
       width="1"
       x="18"
       y="21"
       id="rect18" />
  </g>
</svg>
